icons/midnadark/actions/24/key-enter.svg

<?xml version="1.0" encoding="UTF-8" standalone="no"?>
<!-- Created with Inkscape (http://www.inkscape.org/) -->

<svg
   xmlns:dc="http://purl.org/dc/elements/1.1/"
   xmlns:cc="http://creativecommons.org/ns#"
   xmlns:rdf="http://www.w3.org/1999/02/22-rdf-syntax-ns#"
   xmlns:svg="http://www.w3.org/2000/svg"
   xmlns="http://www.w3.org/2000/svg"
   xmlns:sodipodi="http://sodipodi.sourceforge.net/DTD/sodipodi-0.dtd"
   xmlns:inkscape="http://www.inkscape.org/namespaces/inkscape"
   width="22"
   height="22"
   id="svg3869"
   version="1.1"
   inkscape:version="0.91 r13725"
   sodipodi:docname="key-enter.svg">
  <defs
     id="defs3871">
    <linearGradient
       id="linearGradient4066">
      <stop
         offset="0"
         style="stop-color:#dbc9ee;stop-opacity:1"
         id="stop4068" />
      <stop
         offset="1"
         style="stop-color:#faf7fd;stop-opacity:1"
         id="stop4070" />
    </linearGradient>
    <linearGradient
       id="linearGradient3843-5">
      <stop
         id="stop3845-0"
         style="stop-color:#5a2c8b;stop-opacity:1"
         offset="0" />
      <stop
         id="stop3847-4"
         style="stop-color:#9d59cf;stop-opacity:1"
         offset="1" />
    </linearGradient>
    <linearGradient
       id="linearGradient8311-06">
      <stop
         offset="0"
         style="stop-color:#a9a3d4;stop-opacity:1"
         id="stop8313-6" />
      <stop
         id="stop4462"
         style="stop-color:#87baff;stop-opacity:1"
         offset="0.47001833" />
      <stop
         offset="1"
         style="stop-color:#89ec85;stop-opacity:1"
         id="stop8315-2" />
    </linearGradient>
  </defs>
  <sodipodi:namedview
     id="base"
     pagecolor="#ffffff"
     bordercolor="#666666"
     borderopacity="1.0"
     inkscape:pageopacity="0.0"
     inkscape:pageshadow="2"
     inkscape:zoom="7.9999995"
     inkscape:cx="-18.691851"
     inkscape:cy="8.7792527"
     inkscape:document-units="px"
     inkscape:current-layer="layer1"
     showgrid="true"
     fit-margin-top="0"
     fit-margin-left="0"
     fit-margin-right="0"
     fit-margin-bottom="0"
     inkscape:window-width="1366"
     inkscape:window-height="633"
     inkscape:window-x="0"
     inkscape:window-y="33"
     inkscape:window-maximized="1"
     inkscape:showpageshadow="false"
     inkscape:snap-bbox="true"
     inkscape:object-nodes="true">
    <inkscape:grid
       type="xygrid"
       id="grid4132" />
    <sodipodi:guide
       position="4,18"
       orientation="18,0"
       id="guide4138" />
    <sodipodi:guide
       position="5,3"
       orientation="0,18"
       id="guide4140" />
    <sodipodi:guide
       position="20,2.0000174"
       orientation="-18,0"
       id="guide4142" />
    <sodipodi:guide
       position="2,21"
       orientation="0,-18"
       id="guide4144" />
    <sodipodi:guide
       position="3,19.000017"
       orientation="16,0"
       id="guide4146" />
    <sodipodi:guide
       position="2,4"
       orientation="0,16"
       id="guide4148" />
    <sodipodi:guide
       position="21,20"
       orientation="-16,0"
       id="guide4150" />
    <sodipodi:guide
       position="2,20"
       orientation="0,-16"
       id="guide4152" />
  </sodipodi:namedview>
  <metadata
     id="metadata3874">
    <rdf:RDF>
      <cc:Work
         rdf:about="">
        <dc:format>image/svg+xml</dc:format>
        <dc:type
           rdf:resource="http://purl.org/dc/dcmitype/StillImage" />
        <dc:title />
      </cc:Work>
    </rdf:RDF>
  </metadata>
  <g
     inkscape:label="Capa 1"
     inkscape:groupmode="layer"
     id="layer1"
     transform="translate(-326,-534.3622)">
    <g
       id="g4183"
       transform="translate(-1.0000019,0.99999614)"
       style="fill:#ffffff;fill-opacity:1">
      <g
         inkscape:label="Capa 1"
         id="layer1-0"
         transform="matrix(0.32045072,0,0,0.32045072,207.07299,376.47867)"
         style="fill:#ffffff;fill-opacity:1">
        <g
           transform="translate(363.46801,-516.38811)"
           id="layer1-8"
           inkscape:label="Layer 1"
           style="fill:#ffffff;fill-opacity:1">
          <g
             style="fill:#ffffff;fill-opacity:1"
             transform="matrix(0.48796879,0,0,0.48796879,21.356721,1026.8977)"
             id="g3" />
          <g
             transform="matrix(0.03665026,0,0,0.03665026,2.771614,1009.831)"
             id="g4420"
             style="fill:#ffffff;fill-opacity:1">
            <g
               transform="translate(464.71509,-212.42274)"
               id="g4285-8"
               style="fill:#ffffff;fill-opacity:1" />
            <g
               transform="matrix(1.0486692,0,0,1.0486692,-33.394037,-49.909457)"
               id="g4289"
               style="fill:#ffffff;fill-opacity:1">
              <g
                 transform="translate(0,7.80506)"
                 id="g4319"
                 style="fill:#ffffff;fill-opacity:1">
                <g
                   id="g4273"
                   transform="matrix(1.9935157,0,0,1.9935157,-537.48696,36.004657)"
                   style="fill:#ffffff;fill-opacity:1">
                  <path
                     style="fill:#ffffff;fill-opacity:1;fill-rule:evenodd;stroke:none;stroke-width:1px;stroke-linecap:butt;stroke-linejoin:miter;stroke-opacity:1"
                     d="m 471.41309,628.76803 733.45131,3.41252 c 0.822,36.55995 6.6204,94.54093 -43.7882,93.01 l -651.37457,0 c -41.61051,0.37255 -36.21824,-41.01776 -38.28854,-96.42252 z"
                     id="path4194-2"
                     inkscape:connector-curvature="0"
                     sodipodi:nodetypes="ccccc" />
                  <path
                     style="opacity:1;fill:#ffffff;fill-opacity:1;fill-rule:evenodd;stroke:none;stroke-width:1px;stroke-linecap:butt;stroke-linejoin:miter;stroke-opacity:1"
                     d="M 18.273438 3 L 3.7519531 3.0566406 C 2.6708008 2.9902861 2.5820313 4.0390625 2.5820312 4.0390625 L 1.9980469 16.488281 L 1.9667969 17.125 C 1.8633133 18.490482 3.140625 18.21875 3.140625 18.21875 L 18.919922 18.21875 C 18.919922 18.21875 20.090156 18.267904 20.037109 17.125 L 19.998047 16.357422 L 19.378906 3.9960938 C 19.378906 3.9960938 19.294365 2.9961619 18.273438 3 z M 15 6 L 16 6 L 16 13.800781 L 16 14.666016 L 11 14.666016 L 11 16.400391 L 8 14.232422 L 11 12.066406 L 11 13.800781 L 15 13.800781 L 15 6 z "
                     transform="matrix(40.728978,0,0,40.728978,390.07196,-48.630325)"
                     id="path4166-2" />
                </g>
                <g
                   id="g4285"
                   transform="matrix(1.0374215,-0.00679245,0.007482,0.94181103,257.3585,-1010.9052)"
                   style="fill:#ffffff;fill-opacity:1">
                  <g
                     style="opacity:0.85100002;fill:#ffffff;fill-opacity:1"
                     transform="matrix(8.2385006,0,0,8.2385006,488.96877,1590.4183)"
                     id="g4237-1">
                    <g
                       style="fill:#ffffff;fill-opacity:1"
                       id="g4197-5" />
                    <g
                       style="fill:#ffffff;fill-opacity:1"
                       id="g4201-0" />
                    <g
                       style="fill:#ffffff;fill-opacity:1"
                       id="g4203-2" />
                    <g
                       style="fill:#ffffff;fill-opacity:1"
                       id="g4205-8" />
                    <g
                       style="fill:#ffffff;fill-opacity:1"
                       id="g4207-5" />
                    <g
                       style="fill:#ffffff;fill-opacity:1"
                       id="g4209-1" />
                    <g
                       style="fill:#ffffff;fill-opacity:1"
                       id="g4211-6" />
                    <g
                       style="fill:#ffffff;fill-opacity:1"
                       id="g4213-1" />
                    <g
                       style="fill:#ffffff;fill-opacity:1"
                       id="g4215-7" />
                    <g
                       style="fill:#ffffff;fill-opacity:1"
                       id="g4217-8" />
                    <g
                       style="fill:#ffffff;fill-opacity:1"
                       id="g4219-8" />
                    <g
                       style="fill:#ffffff;fill-opacity:1"
                       id="g4221-6" />
                    <g
                       style="fill:#ffffff;fill-opacity:1"
                       id="g4223-5" />
                    <g
                       style="fill:#ffffff;fill-opacity:1"
                       id="g4225-6" />
                    <g
                       style="fill:#ffffff;fill-opacity:1"
                       id="g4227-3" />
                    <g
                       style="fill:#ffffff;fill-opacity:1"
                       id="g4229-0" />
                  </g>
                </g>
              </g>
            </g>
          </g>
        </g>
      </g>
      <g
         inkscape:label="Capa 1"
         id="layer1-4"
         transform="matrix(1,0,0,0.86666668,327,-357.95172)"
         style="fill:#ffffff;fill-opacity:1" />
    </g>
  </g>
</svg>

<svg xmlns="http://www.w3.org/2000/svg" viewBox="0 0 22 22"><g transform="matrix(.02454 0 0 .02454-9.58 1.188)" fill="#fff" fill-rule="evenodd"><path d="m471.41 628.77l733.45 3.413c.822 36.56 6.62 94.54-43.788 93.01h-651.37c-41.611.373-36.22-41.02-38.29-96.42"/><path d="m18.273 3l-14.521.057c-1.081-.066-1.17.982-1.17.982l-.584 12.449-.031.637c-.103 1.365 1.174 1.094 1.174 1.094h15.779c0 0 1.17.049 1.117-1.094l-.039-.768-.619-12.361c0 0-.085-1-1.105-.996m-3.273 3h1v7.801.865h-5v1.734l-3-2.168 3-2.166v1.734h4v-7.801" transform="matrix(40.72898 0 0 40.72898 390.07-48.63)"/></g></svg>
